UI/Social/SVG/star-empty_outline_24px.svg

<svg width="24" height="24" viewBox="0 0 24 24" fill="none" xmlns="http://www.w3.org/2000/svg">
<path d="M12 5.93L13.07 9.56L13.49 11H18.06L15.93 12.29L14.62 13.08L15 14.55L16.22 18.76L13.22 16.42L12 15.48L10.78 16.41L7.78003 18.76L9.00003 14.56L9.43003 13.09L8.12003 12.29L5.94003 11H10.51L10.93 9.56L12 5.93ZM12 2C11.8711 2.00119 11.7431 2.02141 11.62 2.06C11.429 2.1184 11.2553 2.2228 11.114 2.36403C10.9728 2.50526 10.8684 2.679 10.81 2.87L9.00003 9H3.25003C2.91851 9 2.60056 9.1317 2.36614 9.36612C2.13172 9.60054 2.00003 9.91848 2.00003 10.25C1.99161 10.4487 2.03627 10.6461 2.12942 10.8219C2.22257 10.9976 2.36084 11.1454 2.53003 11.25L7.00003 14L5.18003 20.37C5.12905 20.5269 5.10989 20.6923 5.12366 20.8567C5.13743 21.0211 5.18385 21.1811 5.26022 21.3273C5.33658 21.4735 5.44134 21.603 5.56838 21.7082C5.69541 21.8134 5.84216 21.8922 6.00003 21.94C6.12629 21.9794 6.25775 21.9997 6.39003 22C6.65297 22.0014 6.90923 21.9172 7.12003 21.76L12 18L16.88 21.76C17.147 21.9537 17.4797 22.0339 17.8056 21.9834C18.1316 21.9328 18.4243 21.7555 18.62 21.49C18.7393 21.3322 18.818 21.1477 18.8494 20.9524C18.8808 20.7572 18.8638 20.5572 18.8 20.37L17 14L21.5 11.27C21.6352 11.1753 21.7503 11.0547 21.8386 10.9152C21.927 10.7758 21.9868 10.6202 22.0147 10.4575C22.0426 10.2948 22.038 10.1282 22.0012 9.96729C21.9643 9.80638 21.8959 9.65436 21.8 9.52C21.6836 9.3633 21.533 9.23508 21.3598 9.14501C21.1866 9.05493 20.9952 9.00535 20.8 9H15L13.2 2.89C13.1225 2.63222 12.9638 2.40635 12.7476 2.246C12.5314 2.08564 12.2692 1.99937 12 2Z" fill="#0F1621"/>
</svg>

<svg xmlns="http://www.w3.org/2000/svg" width="24" height="24" viewBox="0 0 24 24"><rect width="24" height="24" style="fill:none"/><path d="M12,5.93l1.07,3.63L13.49,11h4.57l-2.13,1.29-1.31.79L15,14.55l1.22,4.21-3-2.34L12,15.48l-1.22.93-3,2.35L9,14.56l.43-1.47-1.31-.8L5.94,11h4.57l.42-1.44L12,5.93M12,2a1.31,1.31,0,0,0-.38.06,1.22,1.22,0,0,0-.81.81L9,9H3.25A1.25,1.25,0,0,0,2,10.25a1.12,1.12,0,0,0,.53,1L7,14,5.18,20.37A1.24,1.24,0,0,0,6,21.94a1.32,1.32,0,0,0,.39.06,1.21,1.21,0,0,0,.73-.24L12,18l4.88,3.76a1.25,1.25,0,0,0,1.74-.27,1.21,1.21,0,0,0,.18-1.12L17,14l4.5-2.73a1.25,1.25,0,0,0,.3-1.75,1.29,1.29,0,0,0-1-.52H15l-1.8-6.11A1.25,1.25,0,0,0,12,2Z"/></svg>
